X:141
T: ES WOLLT EIN MAEDEL GRASEN
N: E0071F
O: Europa, Mitteleuropa, Deutschland, Schlesien
R: erzaehlendes Volks - Lied, Sage, Liebe
M: 3/4
L: 1/8
K: G
G2 | FED2G2 | FED2
G2 | FDE2A2 | G4
D2 | GBd2de | dcA2
Ac | cBBGFA | AGGF
G2 | FDE2A2 | G4

@@@ Tune index: 3791
